X:1
T:Mad Jig, The
N:Posted on IRTRAD-L by Jerome Colburn in 1996
Z:https://listserv.heanet.ie/cgi-bin/waA2=ind9607&L=irtrad-l&P=61385
R:jig
M:6/8
L:1/8
K:Em
|: d | ~e3 edB | ~g3 afd | ~efe dBA | BAB GED |
e2 f edB | ~g3 afd | ~efe dBA | Bee e2 :|
|: e/2f/2 | gbb gbb | gbb baf | dfa dfa | dfa afd |
~g3 aga | bge fga | bge dBA | Bee e2 :|
